X:277
T: Zur Unzeit (39), S. 128f
N: T0166
O: Luxemburg
S: Singendes Volk, Esch-Alzette 1937 posth.]
N: Heffingen, hhh Nikolaus Ewen, 29.8.1934
R: Liebeslieder]
M: 2/4
L: 1/16
K: D
A2 | A2A2A2AA | B2A2A2
d2 | A2A2A2G2 | G2F2F2z2 |
F2E2E2z2 | A2B2A2
D2 | D2F2A2C2 | E4D2

@@@ Tune index: 8331
